16x16/apps/yokadi.svg

<svg width="16" height="16" version="1.1" xmlns="http://www.w3.org/2000/svg">
 <rect x="-.00019999999" y="1" width="16" height="14" rx=".80000001" ry=".80000001" style="fill:#00a5c3"/>
 <path d="m13 3-1 5-1-2h-1v1l1 2h2l1-5v-1h-1zm-11 1v3s0 1 1 1h3v2h-4v1h4c1 0 1-1 1-1v-6h-1v3h-3v-3h-1zm7 6v1h6v-1h-6z" style="fill:#f4f4f7"/>
</svg>

<svg width="16" height="16" xmlns="http://www.w3.org/2000/svg"><rect y="1" width="16" height="14" rx=".8" ry=".8" style="fill:#00a5c3"/><path d="m13 3-1 5-1-2h-1v1l1 2h2l1-5V3h-1zM2 4v3s0 1 1 1h3v2H2v1h4c1 0 1-1 1-1V4H6v3H3V4H2zm7 6v1h6v-1H9z" style="fill:#f4f4f7"/></svg>
